database-minus.svg

<svg fill="currentColor" viewBox="0 0 24 24"><path d="M23 17v2h-8v-2M12 3c4.42 0 8 1.79 8 4s-3.58 4-8 4-8-1.79-8-4 3.58-4 8-4M4 9c0 2.21 3.58 4 8 4s8-1.79 8-4v3.08L19 12c-2.59 0-4.8 1.64-5.64 3.94L12 16c-4.42 0-8-1.79-8-4zm0 5c0 2.21 3.58 4 8 4h1c0 1.05.27 2.04.75 2.9L12 21c-4.42 0-8-1.79-8-4z"/></svg>

<svg  viewBox="0 0 24 24" fill="currentColor"><path  d="M23 17V19H15V17M12 3C16.42 3 20 4.79 20 7S16.42 11 12 11 4 9.21 4 7 7.58 3 12 3M4 9C4 11.21 7.58 13 12 13S20 11.21 20 9V12.08L19 12C16.41 12 14.2 13.64 13.36 15.94L12 16C7.58 16 4 14.21 4 12V9M4 14C4 16.21 7.58 18 12 18H13C13 19.05 13.27 20.04 13.75 20.9L12 21C7.58 21 4 19.21 4 17V14Z"/></svg>
